X:1
T:The Weasel
C:aka The Mulberry Jig
L:1/8
Q:360
M:6/8
K:D
 z3 B=c^c |: "D"dcd FGA | "G"BA^G "D"A3 | "E"e^de Bc=d | "A"fed cAc | "D"dcd FGA | \
 "G"BA^G "D"A3 | ABd FGA |1 CDE "D"DAc :|2 CDE "D"DEF |: "G"GFG BGB | dBd ge=f | "D"fdA FGA | \
 "C"=cde "D"dcB | "G"GFG B^AB | deg b=c'^c' | "D"d'af def | "C"e=ce "D"d3 :| z6 | \
 z6 | z6 | z6 | z6 | z6 | z6 | z6 | z6 | z6 | z6 | z6 | z6 | z6 | z6 | z6 | z6 | "."z6 | \
K:
W:Created with TablEdit http://www.tabledit.com/
